assets/bank-tab/Asset/Icon(L).svg

<svg width="24" height="24" viewBox="0 0 24 24" fill="none" xmlns="http://www.w3.org/2000/svg">
<path d="M7.67548 10.6661C7.76386 10.7026 7.86906 10.7584 7.91356 10.8295C7.9978 10.9618 7.98745 11.1697 7.94798 11.272C7.00591 13.7152 6.20178 15.1108 5.1975 16.8538C4.80959 17.5271 4.39182 18.2521 3.9247 19.1094C3.85043 19.2808 3.68649 19.3861 3.51077 19.3861C3.47997 19.3861 3.44827 19.3824 3.41657 19.3759C3.20734 19.3302 3.05789 19.1401 3.05789 18.9203L3.27342 16.9778C3.38408 15.9806 3.43941 15.4819 3.3048 15.0879C3.14159 14.6102 2.79155 14.2192 2.33476 14.0043C1.95798 13.827 1.45628 13.827 0.452885 13.827C0.299812 13.827 0.156702 13.7469 0.0733725 13.6146C-0.00995711 13.4832 -0.0235436 13.3156 0.0389537 13.1721C1.21086 10.0766 2.13259 8.25365 3.47402 5.60057C3.60828 5.33503 3.74674 5.06118 3.89008 4.7769C3.97703 4.5766 4.18536 4.46387 4.39821 4.51045C4.60744 4.5561 4.75689 4.74616 4.75689 4.96602L4.65748 7.20375C4.60464 8.39321 4.57821 8.98794 4.83572 9.44977C4.93846 9.63404 5.07175 9.79952 5.22991 9.93916C5.62629 10.2891 6.213 10.39 7.38643 10.5917C7.42658 10.5986 7.44665 10.6021 7.52308 10.622C7.5359 10.6253 7.60336 10.6448 7.616 10.6488C7.66977 10.6658 7.67225 10.665 7.67225 10.665C7.67225 10.665 7.67247 10.6649 7.67548 10.6661Z" fill="#785103"/>
<path fill-rule="evenodd" clip-rule="evenodd" d="M10.2055 9.45845C10.1391 9.35143 9.95113 9.27551 9.84989 9.24107C9.83364 9.23554 9.82552 9.23278 9.79493 9.22478C9.76435 9.21678 9.74785 9.21371 9.71486 9.20759L7.89129 8.86886C7.09709 8.72134 6.69999 8.64758 6.4911 8.35284C6.2822 8.05809 6.33929 7.65211 6.45347 6.84015L6.50251 6.4914C6.54079 6.21918 6.69724 5.97049 6.95587 5.88934C7.41392 5.74561 8.03298 5.69986 8.92924 5.63362C13.1255 5.32348 16.3333 5.32393 20.5345 5.63571C21.9699 5.74224 22.6875 5.7955 23.1768 6.28877C23.6661 6.78205 23.723 7.49839 23.8368 8.93107C24.0381 11.464 24.0571 13.6983 23.8718 16.1928C23.7581 17.7243 23.7012 18.49 23.1653 18.995C22.6293 19.5 21.8384 19.5 20.2565 19.5H9.09619C7.56091 19.5 6.79327 19.5 6.28155 19.0138C6.23316 18.9678 6.18891 18.9194 6.14836 18.8683C6.08898 18.7934 6.0873 18.6892 6.13291 18.6049C7.82474 15.4788 8.86743 13.5521 10.2438 9.95459C10.2877 9.83983 10.2992 9.60677 10.2055 9.45845ZM19.374 15.5836C18.9482 15.5836 18.603 15.9342 18.603 16.3668C18.603 16.7994 18.9482 17.1501 19.374 17.1501H20.916C21.3418 17.1501 21.687 16.7994 21.687 16.3668C21.687 15.9342 21.3418 15.5836 20.916 15.5836H19.374Z" fill="#785103"/>
</svg>

<svg xmlns="http://www.w3.org/2000/svg" width="24" height="24" fill="none" viewBox="0 0 24 24"><path fill="#785103" d="M7.675 10.666c.089.037.194.092.239.163.084.133.073.34.034.443-.942 2.443-1.746 3.839-2.75 5.582-.388.673-.806 1.398-1.273 2.255a.45.45 0 0 1-.508.267.46.46 0 0 1-.36-.456l.216-1.942c.111-.997.166-1.496.032-1.89a1.86 1.86 0 0 0-.97-1.084c-.377-.177-.879-.177-1.882-.177a.45.45 0 0 1-.38-.212.48.48 0 0 1-.034-.443c1.172-3.095 2.094-4.918 3.435-7.571l.416-.824a.45.45 0 0 1 .508-.267c.21.046.359.236.359.456l-.1 2.238c-.052 1.19-.079 1.784.179 2.246.102.184.236.35.394.49.396.35.983.45 2.156.652.04.007.06.01.137.03l.093.027c.054.017.056.016.056.016z"/><path fill="#785103" fill-rule="evenodd" d="M10.206 9.458c-.067-.107-.255-.182-.356-.217l-.055-.016-.08-.017-1.824-.34c-.794-.147-1.191-.22-1.4-.515s-.152-.7-.038-1.513l.05-.349c.038-.272.194-.52.453-.602.458-.143 1.077-.19 1.973-.255 4.197-.31 7.404-.31 11.606.002 1.435.106 2.153.16 2.642.653.49.493.546 1.21.66 2.642.201 2.533.22 4.767.035 7.262-.114 1.531-.17 2.297-.707 2.802s-1.327.505-2.908.505H9.096c-1.536 0-2.304 0-2.815-.486a1.4 1.4 0 0 1-.134-.146.24.24 0 0 1-.015-.263c1.692-3.126 2.734-5.053 4.11-8.65.045-.115.056-.348-.037-.497m9.168 6.126a.777.777 0 0 0-.771.783c0 .432.345.783.771.783h1.542c.426 0 .771-.35.771-.783a.777.777 0 0 0-.771-.783z" clip-rule="evenodd"/></svg>
